svgs/duotone/arrow-up-from-bracket.svg

<svg xmlns="http://www.w3.org/2000/svg" viewBox="0 0 448 512"><!-- Font Awesome Pro 6.0.0-alpha2 by @fontawesome - https://fontawesome.com License - https://fontawesome.com/license (Commercial License) --><defs><style>.fa-secondary{opacity:.4}</style></defs><path d="M384 352V416C384 433.674 369.672 448 352 448H96C78.328 448 64 433.674 64 416V352C64 334.326 49.672 320 32 320S0 334.326 0 352V416C0 469.02 42.98 512 96 512H352C405.02 512 448 469.02 448 416V352C448 334.326 433.672 320 416 320S384 334.326 384 352Z" class="fa-secondary"/><path d="M246.625 9.375L374.625 137.375C387.125 149.875 387.125 170.125 374.625 182.625S341.875 195.125 329.375 182.625L256 109.25V320C256 337.688 241.688 352 224 352S192 337.688 192 320V109.25L118.625 182.625C106.125 195.125 85.875 195.125 73.375 182.625C60.883 170.133 60.867 149.883 73.375 137.375L201.375 9.375C213.875 -3.125 234.125 -3.125 246.625 9.375Z" class="fa-primary"/></svg>

<svg xmlns="http://www.w3.org/2000/svg" viewBox="0 0 448 512"><!--! Font Awesome Pro 6.0.0-alpha3 by @fontawesome - https://fontawesome.com License - https://fontawesome.com/license (Commercial License) --><defs><style>.fa-secondary{opacity:.4}</style></defs><path class="fa-primary" d="M246.6 9.375l128 128c12.5 12.5 12.5 32.75 0 45.25s-32.75 12.5-45.25 0L256 109.3V320c0 17.69-14.31 32-32 32s-32-14.31-32-32V109.3L118.6 182.6c-12.5 12.5-32.75 12.5-45.25 0c-12.49-12.49-12.51-32.74 0-45.25l128-128C213.9-3.125 234.1-3.125 246.6 9.375z"/><path class="fa-secondary" d="M384 352v64c0 17.67-14.33 32-32 32H96c-17.67 0-32-14.33-32-32v-64c0-17.67-14.33-32-32-32s-32 14.33-32 32v64c0 53.02 42.98 96 96 96h256c53.02 0 96-42.98 96-96v-64c0-17.67-14.33-32-32-32S384 334.3 384 352z"/></svg>
